Rowaita/symbolic/status/network-wired-acquiring-symbolic.svg

<?xml version="1.0" encoding="UTF-8" standalone="no"?>
<svg
   width="16"
   height="16"
   version="1.1"
   id="svg429"
   sodipodi:docname="network-wired-acquiring-symbolic.svg"
   inkscape:version="1.2.1 (9c6d41e410, 2022-07-14)"
   xmlns:inkscape="http://www.inkscape.org/namespaces/inkscape"
   xmlns:sodipodi="http://sodipodi.sourceforge.net/DTD/sodipodi-0.dtd"
   xmlns="http://www.w3.org/2000/svg"
   xmlns:svg="http://www.w3.org/2000/svg">
  <defs
     id="defs433" />
  <sodipodi:namedview
     id="namedview431"
     pagecolor="#ffffff"
     bordercolor="#000000"
     borderopacity="0.25"
     inkscape:showpageshadow="2"
     inkscape:pageopacity="0.0"
     inkscape:pagecheckerboard="0"
     inkscape:deskcolor="#d1d1d1"
     showgrid="false"
     inkscape:zoom="11.634116"
     inkscape:cx="-7.2201444"
     inkscape:cy="5.2002231"
     inkscape:current-layer="svg429" />
  <g
     id="g677"
     transform="matrix(1.0666429,0,0,1.0666429,-1.0666429,-1.6002858)">
    <path
       style="fill:#444444"
       d="M 5,8 A 2,2 0 0 1 3,10 2,2 0 0 1 1,8 2,2 0 0 1 3,6 2,2 0 0 1 5,8 Z"
       id="path421" />
    <path
       style="fill:#444444"
       d="M 10,8 A 2,2 0 0 1 8,10 2,2 0 0 1 6,8 2,2 0 0 1 8,6 2,2 0 0 1 10,8 Z"
       id="path423" />
    <path
       style="fill:#444444"
       d="m 15,8 a 2,2 0 0 1 -2,2 2,2 0 0 1 -2,-2 2,2 0 0 1 2,-2 2,2 0 0 1 2,2 z"
       id="path425" />
    <path
       style="opacity:0.3;fill:#444444"
       d="M 2,2 C 2,2 1,2 1,3 V 5 H 3 V 4 h 10 v 1 h 2 V 3 C 15,2 14,2 14,2 Z m -1,9 v 1 c 0,1 1,1 1,1 h 2 l 1,1 h 6 l 1,-1 h 2 c 0,0 1,0.13 1,-1 v -1 h -4 l -1,1 H 6 L 5,11 Z"
       id="path427" />
  </g>
</svg>

<svg xmlns="http://www.w3.org/2000/svg" width="16" height="16" version="1.1">
 <path style="fill:#444444" d="M 5,8 A 2,2 0 0 1 3,10 2,2 0 0 1 1,8 2,2 0 0 1 3,6 2,2 0 0 1 5,8 Z"/>
 <path style="fill:#444444" d="M 10,8 A 2,2 0 0 1 8,10 2,2 0 0 1 6,8 2,2 0 0 1 8,6 2,2 0 0 1 10,8 Z"/>
 <path style="fill:#444444" d="M 15,8 A 2,2 0 0 1 13,10 2,2 0 0 1 11,8 2,2 0 0 1 13,6 2,2 0 0 1 15,8 Z"/>
 <path style="fill:#444444;opacity:0.3" d="M 2,2 C 2,2 1,2 1,3 V 5 H 3 V 4 H 13 V 5 H 15 V 3 C 15,2 14,2 14,2 Z M 1,11 V 12 C 1,13 2,13 2,13 H 4 L 5,14 H 11 L 12,13 H 14 C 14,13 15,13.13 15,12 V 11 H 11 L 10,12 H 6 L 5,11 Z"/>
</svg>
